!!!!SEGMENT: pl-sa--372-a-viii-12--004_anonim--plancti-gdy-cie-na-krzylzu-widze.krn
!!!cenid: 17xx:1710
!!!COM: Anonim
!!!COM-rismid: pe30004985
!!!CDT:
!!!CNT:
!!!GTL: Plancti
!!!OTL: Gdy cię na krzyżu widzę
!!!PDT:
!!!AGN:
!!!SMS-siglum: PL-SA
!!!SMS-shelfmark: 372/A VIII 12
!!!SMS-shelfwork: 004 G
!!!SMS-variant:
!!!SMS-altvar:
!!!NIFC-rismid: 1001041680
!!!URL-scan: http://bc.bdsandomierz.pl/dlibra/publication/1676/edition/1644/content
!!!ONB-nifc: UWAGA: Planctus Czwarty
!!!key: b
**kern	**fba	**kern	**kern	**kern	**text	**text	**kern	**text	**text	**text	**text	**text	**text
*part5	*	*part4	*part3	*part2	*part2	*part2	*part1	*part1	*part1	*part1	*part1	*part1	*part1
*staff5	*	*staff4	*staff3	*staff2	*staff2	*staff2	*staff1	*staff1	*staff1	*staff1	*staff1	*staff1	*staff1
*I"Organo	*	*I"Violino 2do	*I"Violino 1mo.	*I"Tenore 1mo.	*	*	*I"Canto 1mo.	*	*	*	*	*	*
*I'org	*	*I'vl 2	*I'vl 1	*I'T	*	*	*I'S	*	*	*	*	*	*
*Iorgan	*	*Ivioln	*Ivioln	*Itenor	*	*	*Isoprn	*	*	*	*	*	*
*ICklav	*	*ICstr	*ICstr	*ICvox	*	*	*ICvox	*	*	*	*	*	*
*IGcont	*	*	*	*IGsolo	*	*	*IGsolo	*	*	*	*	*	*
*>[A,A,B,B,C,C,D,D,E,E,F,F,G,G,H,H,I,I,J,J,K,K,L,L,M,M,N,N,O,O,P,P]	*	*>[A,A,B,B,C,C,D,D,E,E,F,F,G,G,H,H,I,I,J,J,K,K,L,L,M,M,N,N,O,O,P,P]	*>[A,A,B,B,C,C,D,D,E,E,F,F,G,G,H,H,I,I,J,J,K,K,L,L,M,M,N,N,O,O,P,P]	*>[A,A,B,B,C,C,D,D,E,E,F,F,G,G,H,H,I,I,J,J,K,K,L,L,M,M,N,N,O,O,P,P]	*	*	*>[A,A,B,B,C,C,D,D,E,E,F,F,G,G,H,H,I,I,J,J,K,K,L,L,M,M,N,N,O,O,P,P]	*	*	*	*	*	*
*clefF4	*	*clefG2	*clefG2	*clefC1	*	*	*clefG2	*	*	*	*	*	*
*k[f#c#]	*	*k[f#c#]	*k[f#c#]	*k[f#c#]	*	*	*k[f#c#]	*	*	*	*	*	*
*b:	*	*b:	*b:	*b:	*	*	*b:	*	*	*	*	*	*
*M2/2	*	*M2/2	*M2/2	*M2/2	*	*	*M2/2	*	*	*	*	*	*
*met(c|)	*	*met(c|)	*met(c|)	*met(c|)	*	*	*met(c|)	*	*	*	*	*	*
=1	=1	=1	=1	=1	=1	=1	=1	=1	=1	=1	=1	=1	=1
*>A	*	*>A	*>A	*>A	*	*	*>A	*	*	*	*	*	*
*	*	*	*	*	*	*	*2\right	*	*	*	*	*	*
!	!	!	!	!	!	!	!LO:TX:t=P:problem:znaki [f# cc# ff#]	!	!	!	!	!	!
!LO:TX:t=P:problem:brak nazwy instrumentu	!	!	!LO:TX:t=P:problem:znaki [f# cc# ff#]	!	!	!	!LO:TX:a:t=Plan\nct(us)\n4	!	!	!	!	!	!
!LO:TX:b:t=Gdy cie na krzyzu powtorzyc	!	!LO:TX:a:t=Gdy cie na\nKrzyzu\nTacet	!LO:TX:a:t=Gdy cie na\nKrzyzu\nTacet	!LO:TX:t=P:problem:znaki [c# ff# cc#]	!	!	!LO:TX:b:t=Plankt\nczwart\nty.	!	!	!	!	!	!
!LO:TX:b:t=Planct(us) 4tus	!	!LO:TX:a:t=Planctus Czwarty	!LO:TX:a:t=Planctus. \n4ti.	!LO:TX:b:t=Plankt\nczwarty\n4.	!	!	!	!	!	!	!	!	!
2BB/	.	1ryy	1ryy	[4b\	Gdy	Gwoz-	2dd\	Gdy	Gwoz-	Od	Nie	U-	Za-
.	.	.	.	4b\]	.	.	.	.	.	.	.	.	.
4BB/	.	.	.	4b\	cie	-dzmi	4dd\	cie	-mi	noz-	zo-	-cie-	-den
4F#\	.	.	.	4f#X/	na	oſ-	4a#X/	na	oſ-	-ney	-ſtał	-cho	bol
=2	=2	=2	=2	=2	=2	=2	=2	=2	=2	=2	=2	=2	=2
*2\right	*	*	*	*	*	*	*	*	*	*	*	*	*
2G\	7	1ryy	1ryy	2g/	Krzy-	-try-	2b/	Krzy-	-tre-	ſto-	w to-	mo-	nie
.	6	.	.	.	.	.	.	.	.	.	.	.	.
2F#\	#	.	.	2f#/	-zu	-mi	2a#X/	-żu,	-mi,	-py,	-bie,	-ia,	ieſt,
=3	=3	=3	=3	=3	=3	=3	=3	=3	=3	=3	=3	=3	=3
4.D/	.	1ryy	1ryy	4.a\	wi-	ſro-	4.dd\	Wi-	ſro-	az	za-	o	nad
8D/	.	.	.	8a\	-dzę	-dze	8dd\	-dzę	-dze	do	-den	Je-	te
4G\	.	.	.	(8b\L	ſy-	zra-	4ee\	ſy-	zra-	wierz-	czło-	-zu	twoy
.	.	.	.	8cc#\J)	.	.	.	.	.	.	.	.	.
4D/	.	.	.	4dd\	-na	-nio-	4dd\	-na	-nio-	-chu	-nek	nay-	bol
=4	=4	=4	=4	=4	=4	=4	=4	=4	=4	=4	=4	=4	=4
*	*	*	*	*2\right	*	*	*	*	*	*	*	*	*
2AA/	4	1ryy	1ryy	2ee\	me-	-ne-	(4dd\	me-	-ne-	gło-	zdro-	-droſz-	ſroſz-
.	3	.	.	.	.	.	4cc#X\)	.	.	.	.	.	.
2D/	.	.	.	2dd\	-go	-go	2dd\	-go,	-go,	-wy,	-wy,	-ſzy,	-ſzy,
=5:|!|:	=5:|!|:	=5:|!|:	=5:|!|:	=5:|!|:	=5:|!|:	=5:|!|:	=5:|!|:	=5:|!|:	=5:|!|:	=5:|!|:	=5:|!|:	=5:|!|:	=5:|!|:
*>B	*	*>B	*>B	*>B	*	*	*>B	*	*	*	*	*	*
2AA/	.	1ryy	1ryy	2a\	Cia-	Że	2cc#X\	Cia-	ze	Wiſ-	ia-	o-	ia-
4AA/	.	.	.	4b\	-ło	kos-	4cc#\	-ło	koſ-	-ſis	-ko	-bacz	-ko
4C#/	.	.	.	4cc#\	twe	-ci	4ee\	twe	-ci	na	zło-	czło-	dla
=6	=6	=6	=6	=6	=6	=6	=6	=6	=6	=6	=6	=6	=6
2BB/	.	1ryy	1ryy	2b\	ſwię-	wſzyt-	2dd\	ſwię-	wſzyt-	krzy-	-czyn-	-wie-	cie-
!	!	!	!	!LO:TX:t=P:problem:♯above	!	!	!	!	!	!	!	!	!
2F#\	#	.	.	2a#X\	-te	-kie	2cc#\	-te	-kie,	-zu,	-ca,	-ce,	-bie,
=7	=7	=7	=7	=7	=7	=7	=7	=7	=7	=7	=7	=7	=7
4.DD/	.	1ryy	1ryy	4.dd\	ieſt	mo-	4.ff#\	ieſt	mo-	wſzy-	cha-	iak	ſo-
8D/	.	.	.	8dd\	tak	-gą	8ff#\	tak	-gą	-tek	-nie-	cie	-bie
4G\	.	.	.	4ee\	ros-	bydz	4gg\	ros-	bydz	ob-	-bnie	Bog	nie
4D/	.	.	.	4dd\	-cią-	zli-	4ff#\	-cią-	zli-	-na-	zel-	mi-	fol-
=8	=8	=8	=8	=8	=8	=8	=8	=8	=8	=8	=8	=8	=8
2AA/	.	1ryy	1ryy	4dd\	-gnio-	-czo-	2ee\	-gnio-	-czo-	-rzo-	-zo-	-lu-	-gu-
.	.	.	.	4cc#\	.	.	.	.	.	.	.	.	.
2D/	.	.	.	2dd\	-ne	-ne	2dd\	-ne	-ne,	-ny,	-ny,	-ie,	-ie,
=9	=9	=9	=9	=9	=9	=9	=9	=9	=9	=9	=9	=9	=9
4.D/	.	1ryy	1ryy	4.dd\	ieſt	mo-	4.ff#\	ieſt	mo-	wſzy-	cha-	iak	ſo-
8D/	.	.	.	8dd\	tak	-gą	8ff#\	tak	-gą	-tek	-nie-	cię	-bie
8E\L	.	.	.	4cc#\	ros-	bydz	4ee\	ros-	bydz	ob-	-bnie	Bog	nie
8F#\J	#	.	.	.	.	.	.	.	.	.	.	.	.
4G\	.	.	.	4b\	-cią-	zli-	4dd\	-cią-	zli-	-na-	zel-	mi-	fol-
!LO:LB:g=original	!	!	!	!	!	!	!	!	!	!	!	!	!
=10	=10	=10	=10	=10	=10	=10	=10	=10	=10	=10	=10	=10	=10
4E\	6 5	1ryy	1ryy	4b\	-gnio-	-czo-	2cc#t\	-gnio-	-czo-	-rzo-	-zo-	-łu-	-gu-
!	!	!	!	!LO:TX:t=P:problem:♯above	!	!	!	!	!	!	!	!	!
4F#\	#	.	.	4a#X\	.	.	.	.	.	.	.	.	.
2BB/	.	.	.	2b\	-ne	-ne	2b/	-ne	-ne,	-ny,	-ny,	-ie	-ie,
=11:|!|:	=11:|!|:	=11:|!|:	=11:|!|:	=11:|!|:	=11:|!|:	=11:|!|:	=11:|!|:	=11:|!|:	=11:|!|:	=11:|!|:	=11:|!|:	=11:|!|:	=11:|!|:
*>C	*	*>C	*>C	*>C	*	*	*>C	*	*ij	*	*ij	*	*ij
2AA/	10	1ryy	1ryy	2a\	Mdle-	.	2cc#\	mdle-	mdle-	Mdle-	Mdle-	Mdle-	Mdle-
8BB/L	5 6|	.	.	4g#X/	-ie	.	4b/	-ie	-ie	-ie	-ie	-ie	-ie
8C#/J	.	.	.	.	.	.	.	.	.	.	.	.	.
4D/	5	.	.	4f#/	wzdy-	.	4a/	wzy-	wzy-	wzy-	wzy-	wzdy-	wzdy-
=12	=12	=12	=12	=12	=12	=12	=12	=12	=12	=12	=12	=12	=12
4BB/	.	1ryy	1ryy	4f#/	-cha-	.	2g#X/	-cha-	-cha-	-cha-	-cha-	-cha-	-cha-
4C#/	43 #	.	.	4e/	.	.	.	.	.	.	.	.	.
2F#\	#	.	.	2f#/	-iąc	.	2f#/	-iąc	-iąc	-iąc	-iąc	-iąc	-iąc
!	!	!	!	!	!	!	!LO:PB:g=original	!	!	!	!	!	!
=13	=13	=13	=13	=13	=13	=13	=13	=13	=13	=13	=13	=13	=13
4.F#\	# 10	1ryy	1ryy	2f#/	na	.	2a/	na	na	Na	Na	Na	Na
8E\	6	.	.	.	.	.	.	.	.	.	.	.	.
4D/	6	.	.	4b\	cię	.	4b/	cię	cię	cię	cię	cie	cie
!	!	!	!	!LO:TX:t=P:problem:♯above	!	!	!	!	!	!	!	!	!
4C#/	6 #	.	.	4a#X\	pa-	.	4cc#\	pa-	pa-	pa-	pa-	pa-	pa-
=14	=14	=14	=14	=14	=14	=14	=14	=14	=14	=14	=14	=14	=14
2BB/	#	1ryy	1ryy	2b\	-trza-	.	2dd\	-trza-	-trza-	-trza-	-trza-	-trza-	-trza-
!LO:TX:b:t=Verte	!	!	!	!LO:TX:b:i:t=Verte Cito	!	!	!	!	!	!	!	!	!
!	!	!	!	!LO:TX:t=P:problem:♯above	!	!	!	!	!	!	!	!	!
2F#\	#	.	.	2a#X\	-iąc	.	2cc#\	-iąc	-iąc	-iąc	-iąc	-iąc	-iąc
*	*	*	*	*	*	*	*	*	*Xij	*	*Xij	*	*Xij
!LO:PB:g=original	!	!	!	!LO:PB:g=original	!	!	!	!	!	!	!	!	!
=15:|!|:	=15:|!|:	=15:|!|:	=15:|!|:	=15:|!|:	=15:|!|:	=15:|!|:	=15:|!|:	=15:|!|:	=15:|!|:	=15:|!|:	=15:|!|:	=15:|!|:	=15:|!|:
*>D	*	*>D	*>D	*>D	*	*	*>D	*	*	*	*	*	*
4D/	.	1ryy	1ryy	4dd\	Na-	Nie-	4ff#\	na-	nie-	Na-	Nie-	Na-	Ni-
4D/	.	.	.	4dd\	-rze-	-win-	4ff#\	-rze-	-win-	-rze-	-win-	-rze-	-win-
4AA/	.	.	.	4cc#\	-kam	-nie	4ee\	-kam	-nie	-kam	-nie	-kam	-nie
4r	.	.	.	4r	.	.	4r	.	.	.	.	.	.
=16	=16	=16	=16	=16	=16	=16	=16	=16	=16	=16	=16	=16	=16
4BB/	.	1ryy	1ryy	4b\	na-	nie-	4dd\	na-	nie-	na-	nie-	na-	nie-
4BB/	.	.	.	4b\	-rze-	-win-	4dd\	-rze-	-win-	-rze-	-win-	-rze-	-win-
4F#\	#	.	.	4a#X\	-kam,	-nie	4cc#\	-kam,	-nie.	-kam	-nie	-kam	-nie
4r	.	.	.	4r	.	.	4r	.	.	.	.	.	.
=17	=17	=17	=17	=17	=17	=17	=17	=17	=17	=17	=17	=17	=17
4F#\	#	1ryy	1ryy	8a#X\	ach,	ach,	8cc#X\	ach	ach	ach	ach	ach	ach
.	.	.	.	8r	.	.	8r	.	.	.	.	.	.
*	*	*	*	*	*	*ij	*	*	*ij	*ij	*ij	*ij	*
4BB/	.	.	.	8b\	ach,	ach,	8dd\	ach	ach	ach	ach	ach	ach
.	.	.	.	8r	.	.	8r	.	.	.	.	.	.
*	*	*	*	*	*	*	*	*ij	*	*	*	*	*
4E\	7 3	.	.	8b\	ach,	ach,	8dd\	ach	ach	ach	ach	ach	ach
.	.	.	.	8r	.	.	8r	.	.	.	.	.	.
*	*	*	*	*	*	*	*	*	*	*	*	*	*ij
4AA/	.	.	.	8cc#\	ach	ach,	8ee\	ach	ach	ach	ach	ach	ach
.	.	.	.	8r	.	.	8r	.	.	.	.	.	.
*	*	*	*	*	*	*Xij	*	*Xij	*Xij	*Xij	*Xij	*Xij	*Xij
!	!	!	!	!	!	!	!LO:LB:g=original	!	!	!	!	!	!
=18	=18	=18	=18	=18	=18	=18	=18	=18	=18	=18	=18	=18	=18
2D\	.	1ryy	1ryy	2dd\	ſy-	Zy-	2ff#\	Sy-	Zy-	Sy-	Ży-	Sy-	Zy-
4E\	.	.	.	4ee\	-nu	-dzi	4gg\	-nu	-dzi	-nu	-dzi	-nu	-dzi
8F#\L	6	.	.	4dd\	moy	Za-	4ff#\	moy	za-	moy	za-	moy	za-
8G\J	.	.	.	.	.	.	.	.	.	.	.	.	.
=19	=19	=19	=19	=19	=19	=19	=19	=19	=19	=19	=19	=19	=19
4A\	.	1ryy	1ryy	(4dd\	mi-	-bi-	2ee\	mi-	-bi-	mi-	-bi-	mi-	-bi-
4AA/	.	.	.	4cc#\)	.	.	.	.	.	.	.	.	.
!	!	!	!	!LO:TX:a:t=vi	!	!	!	!	!	!	!	!	!
2D/	.	.	.	2dd\	-ły	-li	2dd\	-ły.	-li	-ły	-li	-ły	-li
=20	=20	=20	=20	=20	=20	=20	=20	=20	=20	=20	=20	=20	=20
!	!	!	!	!LO:TX:a:t=de	!	!	!	!	!	!	!	!	!
2D/	8 3	1ryy	1ryy	[4dd\	y	y	2ff#\	y	y	y	y za-	y	y
.	.	.	.	4dd\]	.	.	.	.	.	.	.	.	.
8E\L	.	.	.	4cc#\	u-	u-	4ee\	u-	u-	u-	-mor-	u-	u-
8F#\J	.	.	.	.	.	.	.	.	.	.	.	.	.
!	!	!	!	!LO:TX:a:t=re	!	!	!	!	!	!	!	!	!
4G\	5	.	.	4b\	-ko-	-mo-	4dd\	-ko-	-mo-	-ko-	-do-	-ko-	-mo-
=21	=21	=21	=21	=21	=21	=21	=21	=21	=21	=21	=21	=21	=21
!	!	!	!	!LO:TX:a:t=tro	!	!	!	!	!	!	!	!	!
4E\	.	1ryy	1ryy	4b\	-cha-	-rzy-	2cc#/	-cha-	-rzy-	-cha-	-wa-	-cha-	-rzy-
4F#\	.	.	.	4a\	.	.	.	.	.	.	.	.	.
!	!	!	!	!	!	!	!LO:TX:b:t=Laus Deo Patri.\nS.J.Borkowſki	!	!	!	!	!	!
2BB/	#	.	.	2b\	-ny	-li	2b/	-ny.	-li	-ny	-li	-ny	-li
!LO:LB:g=original	!	!	!LO:LB:g=original	!LO:LB:g=original	!	!	!	!	!	!	!	!	!
=22:|!|:	=22:|!|:	=22:|!|:	=22:|!|:	=22:|!|:	=22:|!|:	=22:|!|:	=22:|!|:	=22:|!|:	=22:|!|:	=22:|!|:	=22:|!|:	=22:|!|:	=22:|!|:
*>E	*	*>E	*>E	*>E	*	*	*>E	*	*	*	*	*	*
!LO:TX:b:i:t=ſymphonia	!	!LO:TX:b:t=ſÿmphonia Gdy cie na Krzyżu	!LO:TX:b:t=ſymphonia Gdy cie na Krzyżu.	!LO:TX:a:t=ſymphonia\nTacet	!	!	!LO:TX:a:t=P:problem:partia sopranu zanotowana jak w transkrypcji	!	!	!	!	!	!
4.BB/	.	4.b/	4.dd\	1ryy	.	.	1ryy	.	.	.	.	.	.
8BB/	.	8b/	8dd\	.	.	.	.	.	.	.	.	.	.
4.BB/	.	4b/	4dd\	.	.	.	.	.	.	.	.	.	.
.	.	4f#/	4a#X/	.	.	.	.	.	.	.	.	.	.
8F#\	.	.	.	.	.	.	.	.	.	.	.	.	.
=23	=23	=23	=23	=23	=23	=23	=23	=23	=23	=23	=23	=23	=23
4.G\	7	4.g/	4.b/	1ryy	.	.	1ryy	.	.	.	.	.	.
.	6	.	.	.	.	.	.	.	.	.	.	.	.
8G\	.	8g/	8b/	.	.	.	.	.	.	.	.	.	.
2F#\	#	2f#X/	2a#X/	.	.	.	.	.	.	.	.	.	.
=24	=24	=24	=24	=24	=24	=24	=24	=24	=24	=24	=24	=24	=24
4.D/	.	4.dd\	4.ff#\	1ryy	.	.	1ryy	.	.	.	.	.	.
8D/	.	8dd\	8ff#\	.	.	.	.	.	.	.	.	.	.
4D/	.	4dd\	4ff#\	.	.	.	.	.	.	.	.	.	.
4AA/	.	4cc#\	4ee\	.	.	.	.	.	.	.	.	.	.
=25	=25	=25	=25	=25	=25	=25	=25	=25	=25	=25	=25	=25	=25
4.BB/	.	4.b/	4.dd\	1ryy	.	.	1ryy	.	.	.	.	.	.
8BB/	.	8b/	8dd\	.	.	.	.	.	.	.	.	.	.
2F#\	#	2a#X/	4cc#\	.	.	.	.	.	.	.	.	.	.
.	.	.	4cc#\	.	.	.	.	.	.	.	.	.	.
=26	=26	=26	=26	=26	=26	=26	=26	=26	=26	=26	=26	=26	=26
4F#\	.	8f#/L	8a#X/L	1ryy	.	.	1ryy	.	.	.	.	.	.
.	.	8f#/J	8a#/J	.	.	.	.	.	.	.	.	.	.
4E\	.	8g/L	8b#X/L	.	.	.	.	.	.	.	.	.	.
!	!	!LO:TX:t=P:problem:♯below	!	!	!	!	!	!	!	!	!	!	!
.	.	8a#X/	8cc#/J	.	.	.	.	.	.	.	.	.	.
2D\	.	8b/	8dd\L	.	.	.	.	.	.	.	.	.	.
.	.	8cc#/J	8ee\J	.	.	.	.	.	.	.	.	.	.
!	!	!	!LO:LB:g=original	!	!	!	!	!	!	!	!	!	!
.	.	4dd\	4ff#\	.	.	.	.	.	.	.	.	.	.
=27	=27	=27	=27	=27	=27	=27	=27	=27	=27	=27	=27	=27	=27
2D/	.	8dd\L	8ff#\L	1ryy	.	.	1ryy	.	.	.	.	.	.
.	.	8cc#\J	8ee\J	.	.	.	.	.	.	.	.	.	.
.	.	8ee\L	8gg\L	.	.	.	.	.	.	.	.	.	.
.	.	8dd\J	8ff#\J	.	.	.	.	.	.	.	.	.	.
2AA/	.	8.cc#\L	8.ee\L	.	.	.	.	.	.	.	.	.	.
!	!	!LO:N:vis=8	!LO:N:vis=8	!	!	!	!	!	!	!	!	!	!
.	.	16dd\Jk	16ff#\K	.	.	.	.	.	.	.	.	.	.
.	.	8cc#\L	8ee\	.	.	.	.	.	.	.	.	.	.
.	.	8cc#\J	8ee\J	.	.	.	.	.	.	.	.	.	.
!	!	!LO:LB:g=original	!	!	!	!	!	!	!	!	!	!	!
=28	=28	=28	=28	=28	=28	=28	=28	=28	=28	=28	=28	=28	=28
2BB/	#	8b\L	8dd#X\L	1ryy	.	.	1ryy	.	.	.	.	.	.
.	.	8b\	8dd#\	.	.	.	.	.	.	.	.	.	.
.	.	8b\	8dd#\	.	.	.	.	.	.	.	.	.	.
.	.	8b\J	8dd#\J	.	.	.	.	.	.	.	.	.	.
2F#\	#	8.a/L	8.cc#\L	.	.	.	.	.	.	.	.	.	.
!	!	!	!LO:N:vis=8	!	!	!	!	!	!	!	!	!	!
.	.	16b/Jk	16dd#\K	.	.	.	.	.	.	.	.	.	.
.	.	8a/L	8cc#\	.	.	.	.	.	.	.	.	.	.
.	.	8a/J	8cc#\J	.	.	.	.	.	.	.	.	.	.
=29	=29	=29	=29	=29	=29	=29	=29	=29	=29	=29	=29	=29	=29
2G\	.	8gg\L	(8bb\L	1ryy	.	.	1ryy	.	.	.	.	.	.
.	.	8ff#\J	8aa\J)	.	.	.	.	.	.	.	.	.	.
.	.	8aa\L	(8ccc#\L	.	.	.	.	.	.	.	.	.	.
.	.	8gg\J	8bb\J)	.	.	.	.	.	.	.	.	.	.
!LO:LB:g=original	!	!	!	!	!	!	!	!	!	!	!	!	!
2D/	.	8.ff#\L	8.aa\L	.	.	.	.	.	.	.	.	.	.
.	.	16gg\Jk	16bb\Jk	.	.	.	.	.	.	.	.	.	.
.	.	8ff#\L	8aa\L	.	.	.	.	.	.	.	.	.	.
.	.	8ff#\J	8aa\J	.	.	.	.	.	.	.	.	.	.
=30	=30	=30	=30	=30	=30	=30	=30	=30	=30	=30	=30	=30	=30
4.E\	.	8ee\L	8gg\L	1ryy	.	.	1ryy	.	.	.	.	.	.
.	.	8ee\	8gg\	.	.	.	.	.	.	.	.	.	.
.	.	8ee\	8gg\	.	.	.	.	.	.	.	.	.	.
8E\	.	8ee\J	8gg\J	.	.	.	.	.	.	.	.	.	.
2BB/	#	8.dd#X\L	8.ff#\L	.	.	.	.	.	.	.	.	.	.
.	.	16ee\Jk	16gg\K	.	.	.	.	.	.	.	.	.	.
!	!	!LO:TX:t=P:problem:♯above	!	!	!	!	!	!	!	!	!	!	!
.	.	8dd#X\L	8ff#\	.	.	.	.	.	.	.	.	.	.
.	.	8dd#\J	8ff#\J	.	.	.	.	.	.	.	.	.	.
=31	=31	=31	=31	=31	=31	=31	=31	=31	=31	=31	=31	=31	=31
4BB/	.	8r	8r	1ryy	.	.	1ryy	.	.	.	.	.	.
.	.	8dd#X\	8ff#\	.	.	.	.	.	.	.	.	.	.
4E\	.	8r	8r	.	.	.	.	.	.	.	.	.	.
.	.	8ee\	8gg#X\	.	.	.	.	.	.	.	.	.	.
!	!	!	!LO:LB:g=original	!	!	!	!	!	!	!	!	!	!
4AA/	.	8r	8r	.	.	.	.	.	.	.	.	.	.
.	.	8cc#\	8ee\	.	.	.	.	.	.	.	.	.	.
4D/	.	8r	8r	.	.	.	.	.	.	.	.	.	.
.	.	8dd#\	8ff#\	.	.	.	.	.	.	.	.	.	.
=32	=32	=32	=32	=32	=32	=32	=32	=32	=32	=32	=32	=32	=32
4GG/	.	8r	8r	1ryy	.	.	1ryy	.	.	.	.	.	.
.	.	8ee\	8gg\	.	.	.	.	.	.	.	.	.	.
4D/	.	8r	8r	.	.	.	.	.	.	.	.	.	.
.	.	8dd\	8ff#\	.	.	.	.	.	.	.	.	.	.
!	!	!LO:LB:g=original	!	!	!	!	!	!	!	!	!	!	!
4AA/	4	8r	8r	.	.	.	.	.	.	.	.	.	.
.	3	8cc#\	8ee\	.	.	.	.	.	.	.	.	.	.
4D/	.	8r	8r	.	.	.	.	.	.	.	.	.	.
.	.	8dd\	8dd\	.	.	.	.	.	.	.	.	.	.
=33	=33	=33	=33	=33	=33	=33	=33	=33	=33	=33	=33	=33	=33
4D\	.	8r	8r	1ryy	.	.	1ryy	.	.	.	.	.	.
.	.	8dd\L	8ff#\L	.	.	.	.	.	.	.	.	.	.
4E\	.	8cc#\	8ee\	.	.	.	.	.	.	.	.	.	.
.	.	8b\J	8dd\J	.	.	.	.	.	.	.	.	.	.
*	*	*	*2\right	*	*	*	*	*	*	*	*	*	*
2F#\	#	4b/	2cc#\	.	.	.	.	.	.	.	.	.	.
.	.	4a#X/	.	.	.	.	.	.	.	.	.	.	.
=34	=34	=34	=34	=34	=34	=34	=34	=34	=34	=34	=34	=34	=34
!	!	!	!LO:TX:t=P:problem:brakujący takt	!	!	!	!	!	!	!	!	!	!
8BB/L	.	8b/L	1ryy	1ryy	.	.	1ryy	.	.	.	.	.	.
8D/J	.	8dd#X/	.	.	.	.	.	.	.	.	.	.	.
4E\	.	8cc#/	.	.	.	.	.	.	.	.	.	.	.
.	.	8b/J	.	.	.	.	.	.	.	.	.	.	.
2F#\	4	4b/	.	.	.	.	.	.	.	.	.	.	.
.	3	4a#X/	.	.	.	.	.	.	.	.	.	.	.
=35	=35	=35	=35	=35	=35	=35	=35	=35	=35	=35	=35	=35	=35
!LO:TX:t=P:problem:podwójna kreska taktowa	!	!	!	!	!	!	!	!	!	!	!	!	!
1BB/	.	1b\	1b\	1ryy	.	.	1ryy	.	.	.	.	.	.
=36||	=36	=36	=36	=36	=36	=36	=36	=36	=36	=36	=36	=36	=36
4BB/	.	8r	8r	1ryy	.	.	1ryy	.	.	.	.	.	.
.	.	8dd#X\	8ff#\	.	.	.	.	.	.	.	.	.	.
4E\	.	8r	8r	.	.	.	.	.	.	.	.	.	.
.	.	8ee\	8gg#X\	.	.	.	.	.	.	.	.	.	.
4AA/	.	8r	8r	.	.	.	.	.	.	.	.	.	.
.	.	8cc#\	8ee\	.	.	.	.	.	.	.	.	.	.
4D/	.	8r	8r	.	.	.	.	.	.	.	.	.	.
.	.	8dd#\	8ff#\	.	.	.	.	.	.	.	.	.	.
=37	=37	=37	=37	=37	=37	=37	=37	=37	=37	=37	=37	=37	=37
4GG/	.	8r	8r	1ryy	.	.	1ryy	.	.	.	.	.	.
.	.	8ee\	8gg\	.	.	.	.	.	.	.	.	.	.
!LO:LB:g=original	!	!	!	!	!	!	!	!	!	!	!	!	!
4D/	.	8r	8r	.	.	.	.	.	.	.	.	.	.
.	.	8dd\	8ff#\	.	.	.	.	.	.	.	.	.	.
!	!	!	!LO:LB:g=original	!	!	!	!	!	!	!	!	!	!
4AA/	.	8r	8r	.	.	.	.	.	.	.	.	.	.
.	.	8cc#\	8ee\	.	.	.	.	.	.	.	.	.	.
4D/	.	8r	8r	.	.	.	.	.	.	.	.	.	.
.	.	8dd\	8dd\	.	.	.	.	.	.	.	.	.	.
!	!	!LO:LB:g=original	!	!	!	!	!	!	!	!	!	!	!
=38	=38	=38	=38	=38	=38	=38	=38	=38	=38	=38	=38	=38	=38
4D\	.	8r	8r	1ryy	.	.	1ryy	.	.	.	.	.	.
.	.	8dd\L	8ff#\L	.	.	.	.	.	.	.	.	.	.
4E\	.	8cc#\	8ee\	.	.	.	.	.	.	.	.	.	.
.	.	8b\J	8dd\J	.	.	.	.	.	.	.	.	.	.
2F#\	#	4b/	2cc#\	.	.	.	.	.	.	.	.	.	.
.	.	4a#X/	.	.	.	.	.	.	.	.	.	.	.
=39	=39	=39	=39	=39	=39	=39	=39	=39	=39	=39	=39	=39	=39
!	!	!LO:TX:t=P:problem:mixed beam	!	!	!	!	!	!	!	!	!	!	!
8BB/L	.	8g/L	8b\L	1ryy	.	.	1ryy	.	.	.	.	.	.
8D/J	.	8ff#\	8dd\	.	.	.	.	.	.	.	.	.	.
4E\	.	8ee\	8cc#\	.	.	.	.	.	.	.	.	.	.
.	.	8dd\J	8b\J	.	.	.	.	.	.	.	.	.	.
*	*	*2\right	*	*	*	*	*	*	*	*	*	*	*
2F#\	#	2cc#\	4b/	.	.	.	.	.	.	.	.	.	.
.	.	.	4a#X/	.	.	.	.	.	.	.	.	.	.
=40	=40	=40	=40	=40	=40	=40	=40	=40	=40	=40	=40	=40	=40
!	!	!LO:TX:t=P:problem:pojedyncza kreska taktowa	!	!	!	!	!	!	!	!	!	!	!
1BB/	.	1b\	1b\	1ryy	.	.	1ryy	.	.	.	.	.	.
!LO:LB:g=original	!	!	!	!	!	!	!	!	!	!	!	!	!
=41:|!|:	=41:|!|:	=41:|!|:	=41:|!|:	=41:|!|:	=41:|!|:	=41:|!|:	=41:|!|:	=41:|!|:	=41:|!|:	=41:|!|:	=41:|!|:	=41:|!|:	=41:|!|:
*>F	*	*>F	*>F	*>F	*	*	*>F	*	*	*	*	*	*
!LO:TX:b:t=Od nozney ſtopy	!	!LO:TX:b:t=Od noznieÿ\nſtopy Tacet	!LO:TX:b:t=Od nozneÿ\nſtopy\n Tacet	!	!	!	!	!	!	!	!	!	!
2BB/	.	1ryy	1ryy	2b\	Od	Nie	1ryy	.	.	.	.	.	.
4BB/	.	.	.	4b\	noz-	zoſ-	.	.	.	.	.	.	.
4F#\	.	.	.	4f#X/	-ney	-tał	.	.	.	.	.	.	.
=42	=42	=42	=42	=42	=42	=42	=42	=42	=42	=42	=42	=42	=42
2G\	7	1ryy	1ryy	2g/	ſto-	w to-	1ryy	.	.	.	.	.	.
.	6	.	.	.	.	.	.	.	.	.	.	.	.
2F#\	#	.	.	2f#/	-py,	-bie,	.	.	.	.	.	.	.
=43	=43	=43	=43	=43	=43	=43	=43	=43	=43	=43	=43	=43	=43
4.D/	.	1ryy	1ryy	4.a\	az	za-	1ryy	.	.	.	.	.	.
8D/	.	.	.	8a\	do	-den	.	.	.	.	.	.	.
4G\	.	.	.	8b\L	wierz-	czło-	.	.	.	.	.	.	.
.	.	.	.	8cc#\J	.	.	.	.	.	.	.	.	.
4D/	.	.	.	4dd\	-chu	-nek	.	.	.	.	.	.	.
=44	=44	=44	=44	=44	=44	=44	=44	=44	=44	=44	=44	=44	=44
2AA/	.	1ryy	1ryy	2ee\	gło-	zdro-	1ryy	.	.	.	.	.	.
2D/	.	.	.	2dd\	-wy,	-wy,	.	.	.	.	.	.	.
=45:|!|:	=45:|!|:	=45:|!|:	=45:|!|:	=45:|!|:	=45:|!|:	=45:|!|:	=45:|!|:	=45:|!|:	=45:|!|:	=45:|!|:	=45:|!|:	=45:|!|:	=45:|!|:
*>G	*	*>G	*>G	*>G	*	*	*>G	*	*	*	*	*	*
2AA/	.	1ryy	1ryy	2a\	Wiſ-	Ja-	1ryy	.	.	.	.	.	.
4AA/	.	.	.	4b\	-sio	-ko	.	.	.	.	.	.	.
4C#/	#	.	.	4cc#\	na	zło-	.	.	.	.	.	.	.
=46	=46	=46	=46	=46	=46	=46	=46	=46	=46	=46	=46	=46	=46
2BB/	.	1ryy	1ryy	2b\	krzy-	-czyn-	1ryy	.	.	.	.	.	.
2F#\	#	.	.	2a#X\	-zu	-ca	.	.	.	.	.	.	.
!	!	!	!	!LO:LB:g=original	!	!	!	!	!	!	!	!	!
=47	=47	=47	=47	=47	=47	=47	=47	=47	=47	=47	=47	=47	=47
4.D/	.	1ryy	1ryy	4.dd\	Wſzy-	Ch-	1ryy	.	.	.	.	.	.
8D/	.	.	.	8dd\	.	.	.	.	.	.	.	.	.
4G\	.	.	.	4ee\	-tek	-nie-	.	.	.	.	.	.	.
4D/	.	.	.	4dd\	ob-	-bnie	.	.	.	.	.	.	.
=48	=48	=48	=48	=48	=48	=48	=48	=48	=48	=48	=48	=48	=48
2AA/	4	1ryy	1ryy	4dd\	-na-	zel-	1ryy	.	.	.	.	.	.
.	3	.	.	4cc#\	-rzo-	-zo-	.	.	.	.	.	.	.
2D\	.	.	.	2dd\	-ny	-ny	.	.	.	.	.	.	.
!LO:LB:g=original	!	!	!	!	!	!	!	!	!	!	!	!	!
=49	=49	=49	=49	=49	=49	=49	=49	=49	=49	=49	=49	=49	=49
4.D\	.	1ryy	1ryy	4.dd\	Wſzy-	cha-	1ryy	.	.	.	.	.	.
8D\	.	.	.	8dd\	.	.	.	.	.	.	.	.	.
8E\L	.	.	.	4cc#X\	-tek	-nieb-	.	.	.	.	.	.	.
8F#\J	.	.	.	.	.	.	.	.	.	.	.	.	.
4G\	.	.	.	4b\	ob-	-nie	.	.	.	.	.	.	.
=50	=50	=50	=50	=50	=50	=50	=50	=50	=50	=50	=50	=50	=50
4E\	.	1ryy	1ryy	4b\	-na-	zel-	1ryy	.	.	.	.	.	.
4F#\	#	.	.	4a#X\	-rzo-	-zo-	.	.	.	.	.	.	.
2BB/	.	.	.	2b\	-ny	-ny	.	.	.	.	.	.	.
=51:|!|:	=51:|!|:	=51:|!|:	=51:|!|:	=51:|!|:	=51:|!|:	=51:|!|:	=51:|!|:	=51:|!|:	=51:|!|:	=51:|!|:	=51:|!|:	=51:|!|:	=51:|!|:
*>H	*	*>H	*>H	*>H	*	*	*>H	*	*	*	*	*	*
2AA/	.	1ryy	1ryy	2a\	Mdle-	.	1ryy	.	.	.	.	.	.
8BB/L	.	.	.	4g#X/	-ie	.	.	.	.	.	.	.	.
8C#/J	.	.	.	.	.	.	.	.	.	.	.	.	.
4D/	.	.	.	4f#/	wzdy-	.	.	.	.	.	.	.	.
=52	=52	=52	=52	=52	=52	=52	=52	=52	=52	=52	=52	=52	=52
4BB/	.	1ryy	1ryy	4f#/	-cha-	.	1ryy	.	.	.	.	.	.
4C#/	#	.	.	4e/	.	.	.	.	.	.	.	.	.
2F#\	#	.	.	2f#/	-iąc	.	.	.	.	.	.	.	.
=53	=53	=53	=53	=53	=53	=53	=53	=53	=53	=53	=53	=53	=53
4.F#\	.	1ryy	1ryy	2f#/	na	.	1ryy	.	.	.	.	.	.
8E\	.	.	.	.	.	.	.	.	.	.	.	.	.
4D/	.	.	.	4b\	cię	.	.	.	.	.	.	.	.
4C#/	#	.	.	4a#X\	pa-	.	.	.	.	.	.	.	.
=54	=54	=54	=54	=54	=54	=54	=54	=54	=54	=54	=54	=54	=54
2BB/	#	1ryy	1ryy	2b\	-trza-	.	1ryy	.	.	.	.	.	.
!	!	!	!	!LO:TX:t=P:problem:♯above	!	!	!	!	!	!	!	!	!
2F#\	#	.	.	2a#X\	-iąc	.	.	.	.	.	.	.	.
=55:|!|:	=55:|!|:	=55:|!|:	=55:|!|:	=55:|!|:	=55:|!|:	=55:|!|:	=55:|!|:	=55:|!|:	=55:|!|:	=55:|!|:	=55:|!|:	=55:|!|:	=55:|!|:
*>I	*	*>I	*>I	*>I	*	*	*>I	*	*	*	*	*	*
4D/	.	1ryy	1ryy	4dd\	Na-	Nie-	1ryy	.	.	.	.	.	.
4D/	.	.	.	4dd\	-rze-	-win-	.	.	.	.	.	.	.
!	!	!	!	!LO:TX:t=P:problem:♯above	!	!	!	!	!	!	!	!	!
4AA/	.	.	.	4cc#X\	-kam	-nie	.	.	.	.	.	.	.
4r	.	.	.	4r	.	.	.	.	.	.	.	.	.
=56	=56	=56	=56	=56	=56	=56	=56	=56	=56	=56	=56	=56	=56
4BB/	.	1ryy	1ryy	4b\	na-	nie-	1ryy	.	.	.	.	.	.
!LO:LB:g=original	!	!	!	!	!	!	!	!	!	!	!	!	!
4BB/	.	.	.	4b\	-rze-	-win-	.	.	.	.	.	.	.
4F#\	#	.	.	4a#X\	-kam	-nie	.	.	.	.	.	.	.
4r	.	.	.	4r	.	.	.	.	.	.	.	.	.
=57	=57	=57	=57	=57	=57	=57	=57	=57	=57	=57	=57	=57	=57
!	!	!	!	!LO:TX:t=P:problem:♯above	!	!	!	!	!	!	!	!	!
4F#\	#	1ryy	1ryy	8a#X\	ach	ach	1ryy	.	.	.	.	.	.
.	.	.	.	8r	.	.	.	.	.	.	.	.	.
4BB/	.	.	.	8b\	ach	ach	.	.	.	.	.	.	.
.	.	.	.	8r	.	.	.	.	.	.	.	.	.
*	*	*	*	*	*ij	*ij	*	*	*	*	*	*	*
4E\	.	.	.	8b\	ach	ach	.	.	.	.	.	.	.
.	.	.	.	8r	.	.	.	.	.	.	.	.	.
4AA/	.	.	.	8cc#\	ach	ach	.	.	.	.	.	.	.
.	.	.	.	8r	.	.	.	.	.	.	.	.	.
*	*	*	*	*	*Xij	*Xij	*	*	*	*	*	*	*
=58	=58	=58	=58	=58	=58	=58	=58	=58	=58	=58	=58	=58	=58
2D/	.	1ryy	1ryy	2dd\	ſy-	Zy-	1ryy	.	.	.	.	.	.
4E\	.	.	.	4ee\	-nu	-dzi	.	.	.	.	.	.	.
8F#\L	.	.	.	4dd\	moy	Za-	.	.	.	.	.	.	.
8G\J	.	.	.	.	.	.	.	.	.	.	.	.	.
=59	=59	=59	=59	=59	=59	=59	=59	=59	=59	=59	=59	=59	=59
4A\	.	1ryy	1ryy	(4dd\	mi-	-bi-	1ryy	.	.	.	.	.	.
4AA/	.	.	.	4cc#\)	.	.	.	.	.	.	.	.	.
2D/	.	.	.	2dd\	-ły	-li	.	.	.	.	.	.	.
=60	=60	=60	=60	=60	=60	=60	=60	=60	=60	=60	=60	=60	=60
2D/	.	1ryy	1ryy	[4dd\	y	y	1ryy	.	.	.	.	.	.
.	.	.	.	4dd\]	.	.	.	.	.	.	.	.	.
8E\L	.	.	.	4cc#\	u-	u-	.	.	.	.	.	.	.
8F#\J	.	.	.	.	.	.	.	.	.	.	.	.	.
4G\	.	.	.	4b\	-ko-	-mo-	.	.	.	.	.	.	.
=61	=61	=61	=61	=61	=61	=61	=61	=61	=61	=61	=61	=61	=61
!LO:N:vis=4.	!	!	!	!	!	!	!	!	!	!	!	!	!
4E\	.	1ryy	1ryy	4b\	-cha-	-rzy-	1ryy	.	.	.	.	.	.
!LO:N:vis=4.	!	!	!	!LO:TX:t=P:problem:♯above	!	!	!	!	!	!	!	!	!
4F#\	.	.	.	4a\	.	.	.	.	.	.	.	.	.
2BB/	#	.	.	2b\	-ny	-li	.	.	.	.	.	.	.
!LO:LB:g=original	!	!	!	!LO:LB:g=original	!	!	!	!	!	!	!	!	!
=62:|!|:	=62:|!|:	=62:|!|:	=62:|!|:	=62:|!|:	=62:|!|:	=62:|!|:	=62:|!|:	=62:|!|:	=62:|!|:	=62:|!|:	=62:|!|:	=62:|!|:	=62:|!|:
*>J	*	*>J	*>J	*>J	*	*	*>J	*	*	*	*	*	*
!LO:TX:b:i:t=ſymphonia	!	!LO:TX:b:i:t=ſymphonia	!LO:TX:b:i:t=ſymphonia	!LO:TX:a:i:t=ſympho\nnia\nTacet	!	!	!	!	!	!	!	!	!
2BB/	.	2b/	2dd\	1ryy	.	.	1ryy	.	.	.	.	.	.
4BB/	.	4b/	4dd\	.	.	.	.	.	.	.	.	.	.
4F#\	#	4f#/	4a#X/	.	.	.	.	.	.	.	.	.	.
=63	=63	=63	=63	=63	=63	=63	=63	=63	=63	=63	=63	=63	=63
2G\	7	2g/	2b/	1ryy	.	.	1ryy	.	.	.	.	.	.
.	6	.	.	.	.	.	.	.	.	.	.	.	.
2F#\	#	2f#/	2a#X/	.	.	.	.	.	.	.	.	.	.
=64	=64	=64	=64	=64	=64	=64	=64	=64	=64	=64	=64	=64	=64
4.D/	.	4.a/	4.dd\	1ryy	.	.	1ryy	.	.	.	.	.	.
8D/	.	8a/	8dd\	.	.	.	.	.	.	.	.	.	.
!	!	!	!LO:LB:g=original	!	!	!	!	!	!	!	!	!	!
4G\	.	8b\L	4ee\	.	.	.	.	.	.	.	.	.	.
.	.	8cc#\J	.	.	.	.	.	.	.	.	.	.	.
4D/	.	4dd\	4dd\	.	.	.	.	.	.	.	.	.	.
=65	=65	=65	=65	=65	=65	=65	=65	=65	=65	=65	=65	=65	=65
2AA/	4	2ee\	4dd\	1ryy	.	.	1ryy	.	.	.	.	.	.
.	3	.	4cc#\	.	.	.	.	.	.	.	.	.	.
2D/	.	2dd\	2dd\	.	.	.	.	.	.	.	.	.	.
!	!	!LO:LB:g=original	!	!	!	!	!	!	!	!	!	!	!
=66:|!|:	=66:|!|:	=66:|!|:	=66:|!|:	=66:|!|:	=66:|!|:	=66:|!|:	=66:|!|:	=66:|!|:	=66:|!|:	=66:|!|:	=66:|!|:	=66:|!|:	=66:|!|:
*>K	*	*>K	*>K	*>K	*	*	*>K	*	*	*	*	*	*
2AA/	.	2a/	2cc#\	1ryy	.	.	1ryy	.	.	.	.	.	.
4AA/	.	4a/	4cc#\	.	.	.	.	.	.	.	.	.	.
4C#/	#	4cc#\	4ee\	.	.	.	.	.	.	.	.	.	.
=67	=67	=67	=67	=67	=67	=67	=67	=67	=67	=67	=67	=67	=67
2BB/	#	2b/	2dd\	1ryy	.	.	1ryy	.	.	.	.	.	.
2F#\	#	2a#X/	2cc#\	.	.	.	.	.	.	.	.	.	.
=68	=68	=68	=68	=68	=68	=68	=68	=68	=68	=68	=68	=68	=68
4.D/	.	4.dd\	4.ff#\	1ryy	.	.	1ryy	.	.	.	.	.	.
8D/	.	8dd\	8ff#\	.	.	.	.	.	.	.	.	.	.
4G\	.	4ee\	4gg\	.	.	.	.	.	.	.	.	.	.
4D/	.	4dd\	4ff#\	.	.	.	.	.	.	.	.	.	.
=69	=69	=69	=69	=69	=69	=69	=69	=69	=69	=69	=69	=69	=69
4A\	.	4dd\	2ee\	1ryy	.	.	1ryy	.	.	.	.	.	.
4GG/	43	4cc#\	.	.	.	.	.	.	.	.	.	.	.
2D/	.	2dd\	2dd\	.	.	.	.	.	.	.	.	.	.
!LO:PB:g=original	!	!	!	!	!	!	!	!	!	!	!	!	!
=70	=70	=70	=70	=70	=70	=70	=70	=70	=70	=70	=70	=70	=70
4.D/	.	4.dd\	4.ff#\	1ryy	.	.	1ryy	.	.	.	.	.	.
8D/	.	8dd\	8ff#\	.	.	.	.	.	.	.	.	.	.
8E\L	.	4cc#\	4ee\	.	.	.	.	.	.	.	.	.	.
8F#\J	#	.	.	.	.	.	.	.	.	.	.	.	.
4G\	.	4b\	4dd\	.	.	.	.	.	.	.	.	.	.
=71	=71	=71	=71	=71	=71	=71	=71	=71	=71	=71	=71	=71	=71
4E\	.	4b/	2cc#/	1ryy	.	.	1ryy	.	.	.	.	.	.
4F#\	#	4a#X/	.	.	.	.	.	.	.	.	.	.	.
!	!	!LO:TX:t=P:problem:podwójna kreska taktowa	!LO:TX:t=P:problem:podwójna kreska taktowa	!	!	!	!	!	!	!	!	!	!
2BB/	#	2b/	2b/	.	.	.	.	.	.	.	.	.	.
!LO:LB:g=original	!	!	!	!	!	!	!	!	!	!	!	!	!
=72:|!|:	=72:|!|:	=72:|!|:	=72:|!|:	=72:|!|:	=72:|!|:	=72:|!|:	=72:|!|:	=72:|!|:	=72:|!|:	=72:|!|:	=72:|!|:	=72:|!|:	=72:|!|:
*>L	*	*>L	*>L	*>L	*	*	*>L	*	*	*	*	*	*
!LO:TX:b:t=Uciecho moia	!	!LO:TX:b:t=Uciecho mo\nia Tacet	!LO:TX:b:t=Uciecho\nmoia\n Tacet	!	!	!	!	!	!	!	!	!	!
2BB/	.	1ryy	1ryy	2b\	U-	Za-	1ryy	.	.	.	.	.	.
4BB/	.	.	.	4b\	-cie-	-den	.	.	.	.	.	.	.
4F#\	.	.	.	4f#X/	-cho	bol	.	.	.	.	.	.	.
=73	=73	=73	=73	=73	=73	=73	=73	=73	=73	=73	=73	=73	=73
2G\	7	1ryy	1ryy	2g/	mo-	nie	1ryy	.	.	.	.	.	.
.	6	.	.	.	.	.	.	.	.	.	.	.	.
2F#\	#	.	.	2f#/	-ia	ieſt,	.	.	.	.	.	.	.
=74	=74	=74	=74	=74	=74	=74	=74	=74	=74	=74	=74	=74	=74
4.D/	.	1ryy	1ryy	4.a\	o	nad	1ryy	.	.	.	.	.	.
8D/	.	.	.	8a\	Je-	ten	.	.	.	.	.	.	.
4G\	.	.	.	(8b\L	-zu	twoy	.	.	.	.	.	.	.
.	.	.	.	8cc#\J)	.	.	.	.	.	.	.	.	.
4D/	.	.	.	4dd\	nay-	bol	.	.	.	.	.	.	.
=75	=75	=75	=75	=75	=75	=75	=75	=75	=75	=75	=75	=75	=75
2AA/	43	1ryy	1ryy	2ee\	-dro-	sro-	1ryy	.	.	.	.	.	.
2D/	.	.	.	2dd\	-ſzy	-ſzy	.	.	.	.	.	.	.
=76!|:	=76!|:	=76!|:	=76!|:	=76!|:	=76!|:	=76!|:	=76!|:	=76!|:	=76!|:	=76!|:	=76!|:	=76!|:	=76!|:
*>M	*	*>M	*>M	*>M	*	*	*>M	*	*	*	*	*	*
2AA/	.	1ryy	1ryy	2a\	O-	Ja-	1ryy	.	.	.	.	.	.
4AA/	.	.	.	4b\	-bacz	-ko	.	.	.	.	.	.	.
4C#/	.	.	.	4cc#\	czło-	dla	.	.	.	.	.	.	.
=77	=77	=77	=77	=77	=77	=77	=77	=77	=77	=77	=77	=77	=77
2BB/	#	1ryy	1ryy	2b\	-wie-	cie-	1ryy	.	.	.	.	.	.
2F#\	#	.	.	2a#X\	-ce	-bie	.	.	.	.	.	.	.
=78	=78	=78	=78	=78	=78	=78	=78	=78	=78	=78	=78	=78	=78
4.D/	.	1ryy	1ryy	4.dd\	iak	ſo-	1ryy	.	.	.	.	.	.
8D/	.	.	.	8dd\	.	.	.	.	.	.	.	.	.
4G\	.	.	.	4ee\	cię	-bie	.	.	.	.	.	.	.
4D/	.	.	.	4dd\	Bog	nie	.	.	.	.	.	.	.
!	!	!	!	!LO:LB:g=original	!	!	!	!	!	!	!	!	!
=79	=79	=79	=79	=79	=79	=79	=79	=79	=79	=79	=79	=79	=79
2AA/	.	1ryy	1ryy	4dd\	mi-	fol.-	1ryy	.	.	.	.	.	.
.	.	.	.	4cc#\	-łu-	-gu-	.	.	.	.	.	.	.
2D/	.	.	.	2dd\	-ie	-ie	.	.	.	.	.	.	.
!LO:LB:g=original	!	!	!	!	!	!	!	!	!	!	!	!	!
=80	=80	=80	=80	=80	=80	=80	=80	=80	=80	=80	=80	=80	=80
4.D\	.	1ryy	1ryy	4.dd\	iak	ſo-	1ryy	.	.	.	.	.	.
8D\	.	.	.	8dd\	cie	-bie	.	.	.	.	.	.	.
8E\L	.	.	.	4cc#\	Bog	nie	.	.	.	.	.	.	.
8F#\J	.	.	.	.	.	.	.	.	.	.	.	.	.
4G\	.	.	.	4b\	mi-	fol-	.	.	.	.	.	.	.
=81	=81	=81	=81	=81	=81	=81	=81	=81	=81	=81	=81	=81	=81
4E\	.	1ryy	1ryy	4b\	-lu-	-gu-	1ryy	.	.	.	.	.	.
!	!	!	!	!LO:TX:t=P:problem:♯above	!	!	!	!	!	!	!	!	!
4F#\	.	.	.	4a#X\	.	.	.	.	.	.	.	.	.
2BB/	.	.	.	2b\	-ie	-ie	.	.	.	.	.	.	.
=82:|!|:	=82:|!|:	=82:|!|:	=82:|!|:	=82:|!|:	=82:|!|:	=82:|!|:	=82:|!|:	=82:|!|:	=82:|!|:	=82:|!|:	=82:|!|:	=82:|!|:	=82:|!|:
*>N	*	*>N	*>N	*>N	*	*	*>N	*	*	*	*	*	*
2AA/	.	1ryy	1ryy	2a\	Mdle-	.	1ryy	.	.	.	.	.	.
8BB/L	.	.	.	4g#X/	-ie	.	.	.	.	.	.	.	.
8C#/J	.	.	.	.	.	.	.	.	.	.	.	.	.
4D/	.	.	.	4f#/	wzy-	.	.	.	.	.	.	.	.
=83	=83	=83	=83	=83	=83	=83	=83	=83	=83	=83	=83	=83	=83
4BB/	.	1ryy	1ryy	4f#/	-cha-	.	1ryy	.	.	.	.	.	.
4C#/	43	.	.	4e-/	.	.	.	.	.	.	.	.	.
2F#\	#	.	.	2f#X/	-iąc	.	.	.	.	.	.	.	.
=84	=84	=84	=84	=84	=84	=84	=84	=84	=84	=84	=84	=84	=84
4.F#\	.	1ryy	1ryy	2f#/	na	.	1ryy	.	.	.	.	.	.
8E\	.	.	.	.	.	.	.	.	.	.	.	.	.
4D/	.	.	.	4b\	cię	.	.	.	.	.	.	.	.
4C#/	.	.	.	4a#X\	pa-	.	.	.	.	.	.	.	.
=85	=85	=85	=85	=85	=85	=85	=85	=85	=85	=85	=85	=85	=85
2BB/	#	1ryy	1ryy	2b\	-trza-	.	1ryy	.	.	.	.	.	.
2F#\	#	.	.	2a#X\	-iąc	.	.	.	.	.	.	.	.
=86!|:	=86!|:	=86!|:	=86!|:	=86!|:	=86!|:	=86!|:	=86!|:	=86!|:	=86!|:	=86!|:	=86!|:	=86!|:	=86!|:
*>O	*	*>O	*>O	*>O	*	*	*>O	*	*	*	*	*	*
4D/	.	1ryy	1ryy	4dd\	na-	Nie-	1ryy	.	.	.	.	.	.
4D/	.	.	.	4dd\	-rze-	-win-	.	.	.	.	.	.	.
4AA/	.	.	.	4cc#\	-kam	-nie	.	.	.	.	.	.	.
4r	.	.	.	4r	.	.	.	.	.	.	.	.	.
!LO:LB:g=original	!	!	!	!LO:LB:g=original	!	!	!	!	!	!	!	!	!
=87	=87	=87	=87	=87	=87	=87	=87	=87	=87	=87	=87	=87	=87
4BB/	.	1ryy	1ryy	4b\	Na-	Nie-	1ryy	.	.	.	.	.	.
4BB/	.	.	.	4b\	-rze-	-win-	.	.	.	.	.	.	.
!	!	!	!	!LO:TX:t=P:problem:♯above	!	!	!	!	!	!	!	!	!
4F#\	#	.	.	4a#X\	-kam	-nie	.	.	.	.	.	.	.
4r	.	.	.	4r	.	.	.	.	.	.	.	.	.
=88	=88	=88	=88	=88	=88	=88	=88	=88	=88	=88	=88	=88	=88
!	!	!	!	!LO:TX:t=P:problem:♯above	!	!	!	!	!	!	!	!	!
4F#\	.	1ryy	1ryy	8a#X\	ach,	ach,	1ryy	.	.	.	.	.	.
.	.	.	.	8r	.	.	.	.	.	.	.	.	.
4BB/	.	.	.	8b\	ach,	ach,	.	.	.	.	.	.	.
.	.	.	.	8r	.	.	.	.	.	.	.	.	.
4E\	.	.	.	8b\	ach,	ach,	.	.	.	.	.	.	.
.	.	.	.	8r	.	.	.	.	.	.	.	.	.
4AA/	.	.	.	8cc#\	ach,	ach	.	.	.	.	.	.	.
.	.	.	.	8r	.	.	.	.	.	.	.	.	.
=89	=89	=89	=89	=89	=89	=89	=89	=89	=89	=89	=89	=89	=89
2D\	.	1ryy	1ryy	2dd\	ſy-	Zy-	1ryy	.	.	.	.	.	.
4E\	.	.	.	4ee\	-nu	-dzi	.	.	.	.	.	.	.
8F#\L	.	.	.	4dd\	moy	Za-	.	.	.	.	.	.	.
8G\J	.	.	.	.	.	.	.	.	.	.	.	.	.
=90	=90	=90	=90	=90	=90	=90	=90	=90	=90	=90	=90	=90	=90
4A\	.	1ryy	1ryy	4dd\	mi-	-bi-	1ryy	.	.	.	.	.	.
4AA/	43	.	.	4cc#\	.	.	.	.	.	.	.	.	.
2D/	.	.	.	2dd\	-ły	-li	.	.	.	.	.	.	.
=91	=91	=91	=91	=91	=91	=91	=91	=91	=91	=91	=91	=91	=91
2D/	.	1ryy	1ryy	2dd\	y	y	1ryy	.	.	.	.	.	.
8E\L	.	.	.	4cc#\	u-	u-	.	.	.	.	.	.	.
8F#\J	.	.	.	.	.	.	.	.	.	.	.	.	.
4G\	.	.	.	4b\	-ko-	-mo-	.	.	.	.	.	.	.
=92	=92	=92	=92	=92	=92	=92	=92	=92	=92	=92	=92	=92	=92
4E\	6 5	1ryy	1ryy	4b\	-cha-	-rzy-	1ryy	.	.	.	.	.	.
4F#\	#	.	.	4a#X\	.	.	.	.	.	.	.	.	.
!	!	!	!	!LO:TX:b:t=ſtani Bor\nkowski	!	!	!	!	!	!	!	!	!
2BB/	#	.	.	2b\	-ny	-li	.	.	.	.	.	.	.
!LO:LB:g=original	!	!LO:LB:g=original	!	!	!	!	!	!	!	!	!	!	!
=93:|!|:	=93:|!|:	=93:|!|:	=93:|!|:	=93:|!|:	=93:|!|:	=93:|!|:	=93:|!|:	=93:|!|:	=93:|!|:	=93:|!|:	=93:|!|:	=93:|!|:	=93:|!|:
*>P	*	*>P	*>P	*>P	*	*	*>P	*	*	*	*	*	*
!LO:TX:b:i:t=ſymphonia	!	!LO:TX:b:i:t=ſÿmphonia	!LO:TX:b:i:t=ſympho	!	!	!	!	!	!	!	!	!	!
4D/	.	4dd\	4ff#\	1ryy	.	.	1ryy	.	.	.	.	.	.
4D/	.	4dd\	4ff#\	.	.	.	.	.	.	.	.	.	.
4AA/	.	4cc#\	4ee\	.	.	.	.	.	.	.	.	.	.
!	!	!	!LO:LB:g=original	!	!	!	!	!	!	!	!	!	!
4r	.	4r	4r	.	.	.	.	.	.	.	.	.	.
=94	=94	=94	=94	=94	=94	=94	=94	=94	=94	=94	=94	=94	=94
!	!	!	!LO:TX:b:i:t=nia	!	!	!	!	!	!	!	!	!	!
4BB/	.	4b/	4dd\	1ryy	.	.	1ryy	.	.	.	.	.	.
4BB/	.	4b/	4dd\	.	.	.	.	.	.	.	.	.	.
4F#\	#	4a#X/	4cc#\	.	.	.	.	.	.	.	.	.	.
4r	.	4r	4r	.	.	.	.	.	.	.	.	.	.
=95	=95	=95	=95	=95	=95	=95	=95	=95	=95	=95	=95	=95	=95
4F#\	#	8a/	8r	1ryy	.	.	1ryy	.	.	.	.	.	.
.	.	8r	8cc#\L	.	.	.	.	.	.	.	.	.	.
4BB/	.	8b/	8r	.	.	.	.	.	.	.	.	.	.
.	.	8r	8dd\J	.	.	.	.	.	.	.	.	.	.
4E\	.	8b/	8r	.	.	.	.	.	.	.	.	.	.
.	.	8r	8dd\L	.	.	.	.	.	.	.	.	.	.
4AA/	.	8cc#\	8r	.	.	.	.	.	.	.	.	.	.
.	.	8r	8ee\J	.	.	.	.	.	.	.	.	.	.
=96	=96	=96	=96	=96	=96	=96	=96	=96	=96	=96	=96	=96	=96
2D\	.	2dd\	2ff#\	1ryy	.	.	1ryy	.	.	.	.	.	.
4E\	.	4ee\	4gg\	.	.	.	.	.	.	.	.	.	.
8F#\L	.	4dd\	4ff#\	.	.	.	.	.	.	.	.	.	.
8G\J	.	.	.	.	.	.	.	.	.	.	.	.	.
=97	=97	=97	=97	=97	=97	=97	=97	=97	=97	=97	=97	=97	=97
4A\	.	4dd\	2ee\	1ryy	.	.	1ryy	.	.	.	.	.	.
4AA/	.	4cc#\	.	.	.	.	.	.	.	.	.	.	.
2D/	.	2dd\	2dd\	.	.	.	.	.	.	.	.	.	.
=98	=98	=98	=98	=98	=98	=98	=98	=98	=98	=98	=98	=98	=98
2D/	.	2dd\	2ff#\	1ryy	.	.	1ryy	.	.	.	.	.	.
!LO:LB:g=original	!	!	!	!	!	!	!	!	!	!	!	!	!
8E\L	.	4cc#\	4ee\	.	.	.	.	.	.	.	.	.	.
8F#\J	.	.	.	.	.	.	.	.	.	.	.	.	.
4G\	.	4b/	4dd\	.	.	.	.	.	.	.	.	.	.
!	!	!LO:LB:g=original	!	!	!	!	!	!	!	!	!	!	!
=99	=99	=99	=99	=99	=99	=99	=99	=99	=99	=99	=99	=99	=99
4E\	6 5	4b/	2cc#/	1ryy	.	.	1ryy	.	.	.	.	.	.
4F#\	#	4a#X/	.	.	.	.	.	.	.	.	.	.	.
!	!	!LO:TX:b:t=Laus Deo Patri\nſcry ptys S.J.B.	!LO:TX:b:t=Laus Deo Patri\nJerzy. Starziſt Bor\nkowski	!	!	!	!	!	!	!	!	!	!
2BB/	#	2b/	2b/	.	.	.	.	.	.	.	.	.	.
=:|!	=:|!	=:|!	=:|!	=:|!	=:|!	=:|!	=:|!	=:|!	=:|!	=:|!	=:|!	=:|!	=:|!
*-	*-	*-	*-	*-	*-	*-	*-	*-	*-	*-	*-	*-	*-
!!!system-decoration: [(s1,s2)][(s3,s4)]s5
!!!ENC: Tomasz Grochalski
!!!END: 2021-01-05
!!!EED: Andrzej Borzym
!!!EST: 2021-12-30
